_site/images/logos/gitlab-icon.svg

<svg height="36" viewBox="0 0 40 36" width="40" xmlns="http://www.w3.org/2000/svg"><path d="m39.8811091 20.1650684-2.0980667-6.2744979c-.0111219-.0577766-.0281191-.1143335-.0507406-.168836l-4.2091135-12.61101705c-.2300099-.66739527-.8745248-1.11541904-1.5977403-1.11064239-.7216907-.00425935-1.3619479.44985291-1.57886 1.11983075l-4.012051 12.01721959h-12.6627408l-4.017951-12.01721959c-.2161361-.66753991-.85269924-1.12106584-1.57177996-1.11983075h-.00944012c-.7238292.00012257-1.36599645.45200396-1.59302023 1.12097929l-4.2126535 12.62594815c0 .0114854-.00944012.0206738-.01298017.0321592l-2.13582712 6.3870552c-.32198305.9610157.0292664 2.0144938.86967105 2.6083442l18.45307435 13.0509096c.3332762.2348073.7844094.232484 1.1151142-.0057427l18.4566144-13.0451669c.8407994-.5940951 1.1916879-1.6483847.868491-2.6094927zm-27.5828503-5.1833807 5.1436853 15.4088711-12.3476768-15.4088711zm10.2661304 15.4123167 4.9324626-14.7725775.2124027-.6397392h7.2098916l-11.1712019 13.9295459zm9.3775791-28.0910979 3.6143859 10.8342189h-7.2346719zm-6.219859 12.6718899-3.5837055 10.7342956-2.1381872 6.3927979-5.7136326-17.1270935zm-17.65774428-12.6718899 3.62146598 10.8342189h-7.22995181zm-5.96615577 18.9854382c-.17858271-.1264118-.25295634-.3505427-.18408234-.5547469l1.58594014-4.7434882 11.63140775 14.5141551zm35.80519475 0-13.0344456 9.2124743.0436606-.0551301 11.5877471-14.4555793 1.5859402 4.7411911c.0696974.204296-.0042402.4290149-.1829023.5558955z" fill="#fff" opacity=".917876"/></svg>

<?xml version="1.0" encoding="UTF-8"?>
<svg width="40px" height="36px" viewBox="0 0 40 36" version="1.1" xmlns="http://www.w3.org/2000/svg" xmlns:xlink="http://www.w3.org/1999/xlink">
    <!-- Generator: Sketch 52.6 (67491) - http://www.bohemiancoding.com/sketch -->
    <title>gitlab-icon-1-color-white-rgb</title>
    <desc>Created with Sketch.</desc>
    <g id="Landing-page" stroke="none" stroke-width="1" fill="none" fill-rule="evenodd" opacity="0.917875744">
        <g id="1.1--Home" transform="translate(-817.000000, -762.000000)" fill="#FFFFFF" fill-rule="nonzero">
            <g id="header" transform="translate(0.000000, 100.000000)">
                <g id="Slogan">
                    <g id="Component-/-Background">
                        <g>
                            <g id="Group-34" transform="translate(729.000000, 615.000000)">
                                <g id="Group-32" transform="translate(0.000000, 44.000000)">
                                    <g id="gitlab-icon-1-color-white-rgb" transform="translate(88.000000, 3.000000)">
                                        <path d="M39.8811091,20.1650684 L37.7830424,13.8905705 C37.7719205,13.8327939 37.7549233,13.776237 37.7323018,13.7217345 L33.5231883,1.11071745 C33.2931784,0.443322178 32.6486635,-0.00470158711 31.925448,7.50588864e-05 C31.2037573,-0.0041842911 30.5635001,0.449927969 30.346588,1.11990581 L26.334537,13.1371254 L13.6717962,13.1371254 L9.6538452,1.11990581 C9.4377091,0.452365904 8.80114596,-0.00116002697 8.08206524,7.50588864e-05 L8.07262512,7.50588864e-05 C7.34879592,0.000197628311 6.70662867,0.452079017 6.47960489,1.12105435 L2.26695139,13.7470025 C2.26695139,13.7584879 2.25751127,13.7676763 2.25397122,13.7791617 L0.1181441,20.1662169 C-0.203838947,21.1272326 0.1474105,22.1807107 0.987815145,22.7745611 L19.4408895,35.8254707 C19.7741657,36.060278 20.2252989,36.0579547 20.5560037,35.819728 L39.0126181,22.7745611 C39.8534175,22.180466 40.204306,21.1261764 39.8811091,20.1650684 Z M12.2982588,14.9816877 L17.4419441,30.3905588 L5.0942673,14.9816877 L12.2982588,14.9816877 Z M22.5643892,30.3940044 L27.4968518,15.6214269 L27.7092545,14.9816877 L34.9191461,14.9816877 L23.7479442,28.9112336 L22.5643892,30.3940044 Z M31.9419683,2.3029065 L35.5563542,13.1371254 L28.3216823,13.1371254 L31.9419683,2.3029065 Z M25.7221093,14.9747964 L22.1384038,25.709092 L20.0002166,32.1018899 L14.286584,14.9747964 L25.7221093,14.9747964 Z M8.06436502,2.3029065 L11.685831,13.1371254 L4.45587919,13.1371254 L8.06436502,2.3029065 Z M2.09820925,21.2883447 C1.91962654,21.1619329 1.84525291,20.937802 1.91412691,20.7335978 L3.50006705,15.9901096 L15.1314748,30.5042647 L2.09820925,21.2883447 Z M37.903404,21.2883447 L24.8689584,30.500819 L24.912619,30.4456889 L36.5003661,15.9901096 L38.0863063,20.7313007 C38.1560037,20.9355967 38.0820661,21.1603156 37.903404,21.2871962 L37.903404,21.2883447 Z" id="Shape"></path>
                                    </g>
                                </g>
                            </g>
                        </g>
                    </g>
                </g>
            </g>
        </g>
    </g>
</svg>
